storage/app/icons/phosphoricons/bold/desktop-bold.svg

<svg xmlns="http://www.w3.org/2000/svg" fill="currentColor" viewBox="0 0 256 256"><path d="M208 36H48a28 28 0 0 0-28 28v108a28 28 0 0 0 28 28h68v12H96a12 12 0 0 0 0 24h64a12 12 0 0 0 0-24h-20v-12h68a28 28 0 0 0 28-28V64a28 28 0 0 0-28-28M48 60h160a4 4 0 0 1 4 4v72H44V64a4 4 0 0 1 4-4m160 116H48a4 4 0 0 1-4-4v-12h168v12a4 4 0 0 1-4 4"/></svg>

<svg xmlns="http://www.w3.org/2000/svg" viewBox="0 0 256 256" fill="currentColor"><path d="M208,36H48A28,28,0,0,0,20,64V172a28,28,0,0,0,28,28h68v12H96a12,12,0,0,0,0,24h64a12,12,0,0,0,0-24H140V200h68a28,28,0,0,0,28-28V64A28,28,0,0,0,208,36ZM48,60H208a4,4,0,0,1,4,4v72H44V64A4,4,0,0,1,48,60ZM208,176H48a4,4,0,0,1-4-4V160H212v12A4,4,0,0,1,208,176Z"/></svg>
